poi/svg/1128.svg

<?xml version="1.0" encoding="UTF-8" standalone="no"?>
<svg
   xmlns:dc="http://purl.org/dc/elements/1.1/"
   xmlns:cc="http://creativecommons.org/ns#"
   xmlns:rdf="http://www.w3.org/1999/02/22-rdf-syntax-ns#"
   xmlns:svg="http://www.w3.org/2000/svg"
   xmlns="http://www.w3.org/2000/svg"
   xmlns:sodipodi="http://sodipodi.sourceforge.net/DTD/sodipodi-0.dtd"
   xmlns:inkscape="http://www.inkscape.org/namespaces/inkscape"
   inkscape:version="1.0 (4035a4fb49, 2020-05-01)"
   sodipodi:docname="1128.svg"
   id="svg20"
   version="1.2"
   viewBox="0 0 42.519639 42.519639"
   height="14.999999mm"
   width="14.999999mm">
  <metadata
     id="metadata24">
    <rdf:RDF>
      <cc:Work
         rdf:about="">
        <dc:format>image/svg+xml</dc:format>
        <dc:type
           rdf:resource="http://purl.org/dc/dcmitype/StillImage" />
        <dc:title>Qt SVG Document</dc:title>
      </cc:Work>
    </rdf:RDF>
  </metadata>
  <sodipodi:namedview
     inkscape:current-layer="svg20"
     inkscape:window-maximized="0"
     inkscape:window-y="0"
     inkscape:window-x="0"
     inkscape:cy="28.346482"
     inkscape:cx="28.346482"
     inkscape:zoom="5.8410537"
     showgrid="false"
     id="namedview22"
     inkscape:window-height="480"
     inkscape:window-width="1034"
     inkscape:pageshadow="2"
     inkscape:pageopacity="0"
     guidetolerance="10"
     gridtolerance="10"
     objecttolerance="10"
     borderopacity="1"
     bordercolor="#666666"
     pagecolor="#ffffff" />
  <title
     id="title2">Qt SVG Document</title>
  <desc
     id="desc4">Generated with Qt</desc>
  <defs
     id="defs6" />
  <g
     transform="translate(5.25984,5.25984)"
     id="g18"
     stroke-linejoin="bevel"
     stroke-linecap="square"
     fill-rule="evenodd"
     stroke-width="1"
     stroke="#000000"
     fill="none">
    <g
       id="g10"
       font-style="normal"
       font-weight="400"
       font-size="7.8px"
       font-family="'MS Shell Dlg 2'"
       stroke="none"
       fill-opacity="1"
       fill="#3d97f1">
      <path
         id="path8"
         d="M 37.2598,16 C 37.2598,27.7415 27.7415,37.2598 16,37.2598 4.25851,37.2598 -5.25984,27.7415 -5.25984,16 -5.25984,4.25851 4.25851,-5.25984 16,-5.25984 27.7415,-5.25984 37.2598,4.25851 37.2598,16"
         fill-rule="evenodd"
         vector-effect="non-scaling-stroke" />
    </g>
    <g
       id="g14"
       font-style="normal"
       font-weight="400"
       font-size="7.8px"
       font-family="'MS Shell Dlg 2'"
       transform="translate(16,11.9181)"
       stroke="none"
       fill-opacity="0.94902"
       fill="#ffffff">
      <path
         id="path12"
         d="m 10.4473,-6.68213 v 1.23877 l -21.794,8.12549 V 1.48535 l 21.794,-8.16748 m -13.75248,4.19922 c -0.40592,0 -0.76635,-0.15047 -1.08129,-0.45142 -0.31495,-0.30094 -0.47242,-0.64738 -0.47242,-1.0393 0,-0.40593 0.15747,-0.75236 0.47242,-1.03931 0.31494,-0.28695 0.67537,-0.43042 1.08129,-0.43042 0.43392,0 0.79436,0.14347 1.0813,0.43042 0.28695,0.28695 0.43042,0.63338 0.43042,1.03931 0,0.39192 -0.14347,0.73836 -0.43042,1.0393 -0.28694,0.30095 -0.64738,0.45142 -1.0813,0.45142 M 7.10889,4.27783 c 0.22396,0 0.43042,0.08749 0.61938,0.26245 0.18897,0.17497 0.28345,0.41643 0.28345,0.72437 V 15.3218 c 0,0.2379 -0.09448,0.4479 -0.28345,0.6299 -0.18896,0.1819 -0.39542,0.2729 -0.61938,0.2729 H -7.25244 c -0.29395,0 -0.5319,-0.091 -0.71387,-0.2729 -0.18196,-0.182 -0.27295,-0.392 -0.27295,-0.6299 V 5.26465 c 0,-0.30794 0.09099,-0.5494 0.27295,-0.72437 0.18197,-0.17496 0.41992,-0.26245 0.71387,-0.26245 h 6.00488 V -0.488281 L 0.432129,-1.18115 0.915039,4.27783 H 7.10889 M 2.97266,6.56641 c 0,-0.37793 -0.15398,-0.5669 -0.46192,-0.5669 H -2.6123 c -0.13998,0 -0.26246,0.05599 -0.36744,0.16797 -0.10498,0.11198 -0.15747,0.24495 -0.15747,0.39893 v 0.41992 c 0,0.13997 0.05249,0.26245 0.15747,0.36743 0.10498,0.10498 0.22746,0.15747 0.36744,0.15747 h 5.12304 c 0.13998,0 0.25196,-0.05249 0.33594,-0.15747 C 2.93066,7.24878 2.97266,7.1263 2.97266,6.98633 V 6.56641 m -1.15479,-10.792 c -0.40592,0 -0.75236,-0.14347 -1.039306,-0.43042 -0.286946,-0.28694 -0.430419,-0.66137 -0.430419,-1.12329 0,-0.40592 0.143473,-0.75936 0.430419,-1.0603 0.286946,-0.30094 0.633386,-0.45142 1.039306,-0.45142 0.39193,0 0.73836,0.15048 1.03931,0.45142 0.30094,0.30094 0.45141,0.65438 0.45141,1.0603 0,0.46192 -0.15047,0.83635 -0.45141,1.12329 -0.30095,0.28695 -0.64738,0.43042 -1.03931,0.43042"
         fill-rule="evenodd"
         vector-effect="none" />
    </g>
    <g
       id="g16"
       font-style="normal"
       font-weight="400"
       font-size="7.8px"
       font-family="'MS Shell Dlg 2'"
       stroke="none"
       fill-opacity="1"
       fill="#3d97f1" />
  </g>
</svg>

<?xml version="1.0" encoding="UTF-8" standalone="no"?>
<svg width="11.2889mm" height="11.2889mm"
 viewBox="0 0 32 32"
 xmlns="http://www.w3.org/2000/svg" xmlns:xlink="http://www.w3.org/1999/xlink"  version="1.2" baseProfile="tiny">
<title>Qt SVG Document</title>
<desc>Generated with Qt</desc>
<defs>
</defs>
<g fill="none" stroke="black" stroke-width="1" fill-rule="evenodd" stroke-linecap="square" stroke-linejoin="bevel" >

<g fill="#3d97f1" fill-opacity="1" stroke="none" transform="matrix(1,0,0,1,0,0)"
font-family="MS Shell Dlg 2" font-size="7.8" font-weight="400" font-style="normal" 
>
<path vector-effect="non-scaling-stroke" fill-rule="evenodd" d="M37.2598,16 C37.2598,27.7415 27.7415,37.2598 16,37.2598 C4.25851,37.2598 -5.25984,27.7415 -5.25984,16 C-5.25984,4.25851 4.25851,-5.25984 16,-5.25984 C27.7415,-5.25984 37.2598,4.25851 37.2598,16 "/>
</g>

<g fill="#ffffff" fill-opacity="0.94902" stroke="none" transform="matrix(1,0,0,1,16,11.9181)"
font-family="MS Shell Dlg 2" font-size="7.8" font-weight="400" font-style="normal" 
>
<path vector-effect="none" fill-rule="evenodd" d="M10.4473,-6.68213 L10.4473,-5.44336 L-11.3467,2.68213 L-11.3467,1.48535 L10.4473,-6.68213 M-3.30518,-2.48291 C-3.7111,-2.48291 -4.07153,-2.63338 -4.38647,-2.93433 C-4.70142,-3.23527 -4.85889,-3.58171 -4.85889,-3.97363 C-4.85889,-4.37956 -4.70142,-4.72599 -4.38647,-5.01294 C-4.07153,-5.29989 -3.7111,-5.44336 -3.30518,-5.44336 C-2.87126,-5.44336 -2.51082,-5.29989 -2.22388,-5.01294 C-1.93693,-4.72599 -1.79346,-4.37956 -1.79346,-3.97363 C-1.79346,-3.58171 -1.93693,-3.23527 -2.22388,-2.93433 C-2.51082,-2.63338 -2.87126,-2.48291 -3.30518,-2.48291 M7.10889,4.27783 C7.33285,4.27783 7.53931,4.36532 7.72827,4.54028 C7.91724,4.71525 8.01172,4.95671 8.01172,5.26465 L8.01172,15.3218 C8.01172,15.5597 7.91724,15.7697 7.72827,15.9517 C7.53931,16.1336 7.33285,16.2246 7.10889,16.2246 L-7.25244,16.2246 C-7.54639,16.2246 -7.78434,16.1336 -7.96631,15.9517 C-8.14827,15.7697 -8.23926,15.5597 -8.23926,15.3218 L-8.23926,5.26465 C-8.23926,4.95671 -8.14827,4.71525 -7.96631,4.54028 C-7.78434,4.36532 -7.54639,4.27783 -7.25244,4.27783 L-1.24756,4.27783 L-1.24756,-0.488281 L0.432129,-1.18115 L0.915039,4.27783 L7.10889,4.27783 M2.97266,6.56641 C2.97266,6.18848 2.81868,5.99951 2.51074,5.99951 L-2.6123,5.99951 C-2.75228,5.99951 -2.87476,6.0555 -2.97974,6.16748 C-3.08472,6.27946 -3.13721,6.41243 -3.13721,6.56641 L-3.13721,6.98633 C-3.13721,7.1263 -3.08472,7.24878 -2.97974,7.35376 C-2.87476,7.45874 -2.75228,7.51123 -2.6123,7.51123 L2.51074,7.51123 C2.65072,7.51123 2.7627,7.45874 2.84668,7.35376 C2.93066,7.24878 2.97266,7.1263 2.97266,6.98633 L2.97266,6.56641 M1.81787,-4.22559 C1.41195,-4.22559 1.06551,-4.36906 0.778564,-4.65601 C0.491618,-4.94295 0.348145,-5.31738 0.348145,-5.7793 C0.348145,-6.18522 0.491618,-6.53866 0.778564,-6.8396 C1.06551,-7.14054 1.41195,-7.29102 1.81787,-7.29102 C2.2098,-7.29102 2.55623,-7.14054 2.85718,-6.8396 C3.15812,-6.53866 3.30859,-6.18522 3.30859,-5.7793 C3.30859,-5.31738 3.15812,-4.94295 2.85718,-4.65601 C2.55623,-4.36906 2.2098,-4.22559 1.81787,-4.22559 "/>
</g>

<g fill="#3d97f1" fill-opacity="1" stroke="none" transform="matrix(1,0,0,1,0,0)"
font-family="MS Shell Dlg 2" font-size="7.8" font-weight="400" font-style="normal" 
>
</g>
</g>
</svg>
